X:23
T:Believe Me, If All Those Endearing Young Charms
% Four-part piano arrangement for standard notation.
C:Thomas Moore/Irish Air "My Lodging is in the Cold Ground"
S:Source "The One Hundred and One Best Songs" - The Cable Company - 1919 - Chicago, Illinois
M:6/8
L:1/8
Q:1/4=80
%%staves [(1 2) (3 4)]
K:Eb
V:1 clef=treble
"^Andantino"G/F/ | E > F E E G B | A c e e2 d/ c/ | B > A G
w:1.~Be\-* lieve me, if all those en-dear-ing young charms, Which I gaze on so
w:2.~It* is not while beau-ty and youth are thine own, And thy cheeks un-pro\-
V:2 clef=treble
"^Andantino"D | B, > B, B, B, E E | E A A A2 F/ F/ | G > D E
V:3 clef=bass
%%MIDI transpose -24
%%jsastem=dn
"^Andantino"a | g > a g g b b | c' e' c' c'2 b/ d'/ | e' > b b
V:4 clef=bass
%%MIDI transpose -24
%%jsastem=dn
"^Andantino"B | e > e e e e g | a a a a2 a/ a/ | g > f e
V:1
F > E F | G3-G2 G/ F/ | E > F E E G B | A c e e2 (d/ c/) |
w:fond-ly to-day,* Were to change by to-mor-row, and fleet in my arms, Like*
w:faned by a tear,* That the fer-vor and faith of a soul can be known, To which
V:2
D > C D | E3-E2 D/ D/ | B, > B, B, B, E E |E A A A2 (A/ A/) |
V:3
b > b b | b3-b2 b/ a/ | g > a g g b _d' | c' e' c' c'2 (d'/ e'/) |
V:4
B > B B | e3-e2 B/ B/ | e > e e e e g | a a a a2 (a/ a/) |
V:1
B e G F > E F | E3-E2 B/ A/ | G B e e > e (B/ B/) |
w:fair-y gifts, fad-ing a-way,* Thou wouldst still be a-dored* as this
w:time will but make thee more dear!* No, the heart that has tru-ly loved*
V:2
G G E D > E D | B,3-B,2 G/ F/ | E G G G > G (G/ G/) |
V:3
e' e' b a > g a | g3-g2 b/ b/ | b b b b > b (e'/ e'/) |
V:4
b b b B > B B | e3-e2 e/ e/ | e e e e > e (e/ e/) |
V:1
c A e e2 d/ c/ | B > A G F > E F | G3-G2 G/ F/ | E > F E
w:mo-ment thou art, Let thy love-li-ness fade as it will;* And a-round the dear
w:nev-er for-gets, But as tru-ly loves on to the close;* As the sun-flow-er
V:2
A E A A2 A/ A/ | G > E E D > C D | E3-E2 D/ D/ | B, > B, B,
V:3
e' c' c' c'2 d'/ e'/ | e' > c' b b > b b | b3-b2 b/ a/ | g > a g
V:4
a a a a2 a/ a/ | e > e e B > B B | e3-e2 B/ B/ | e > e e
V:1
E G B | A c e e2 d/ c/ | B e G F > E F | E3-E z |]
w:ru-in, each wish of my heart Would en-twine it-self ver-dant-ly still!*
w:turns on her god, when he sets, The same look which she turned when he rose!*
V:2
B, E E | E A A A2 A/ A/ | G G E D > E D | B,3-B, z |]
V:3
g b _d' | c' e' c' c'2 d'/ e'/ | e' e' b a > g a | g3-g z |]
V:4
e e g | a a a a2 a/ a/ | b b b B > B B | e3-e z |]

